X:20
% The song with calculated Accords
T:Grietje sprot                           %title
C:                           %composer
O:                           %origin
M:6/8                           % type of bar  4/4 or 3/4
L:1/8                           % length of shortest note
Q:
K:F     % transposed from G
P:Intro
G "C"A>c B A c|B "F" A>F G F2||
C "F"F>F FF A|F "C" G>GGG B| G "F"A GF c>B    | "F"AA GF"C"G2|
C "F"F>F FF A|F "C" G>GGG B| G  "F"A>c B A c  | "F"B A>F G F2|
C "F"F>F FF A|F "C" G>GGG B| G  "F"A>c B A c  |"F"B A>F G F2|
W:
W:In 't stadje Stavoren, waar ik ben geboren,
W:Daar woonde een meisje, genaamd Grietje Sprot,
W:ze duwde haar wagen, en riep alle dagen:
W: Wie mot er nog schellevis, wie mot er nog sprot
W: wie mot er nog haring, wie mot er nog paling,
W: wie mot er nog schellevis, wie mot er nog sprot
W:
W:Toen kreeg ze de kinkhoest, zodat ze naar bed moest,
W:en toen ging ons arreme Grietje kapot,
W:maar haar geest duwt haar wagen, en roept alle dagen,
W: Wie mot er nog schellevis, wie mot er nog sprot
W: wie mot er nog haring, wie mot er nog paling,
W: wie mot er nog schellevis, wie mot er nog sprot
